X:485
T:Slangpolska efter Juringius
Z:Jack Campin, http://www.campin.me.uk/
F:Jack Campin's Nine-Note Tunebook
% last edit 10-10-2014
C:Magnus Juringius, 18th century Sweden
D:https://www.youtube.com/watch?v=rOSF0l-HYUI
D:https://www.youtube.com/watch?v=hJ756WLdPv4
D:https://www.youtube.com/watch?v=ByFtpVZIXaA
M:3/4
L:1/8
Q:1/4=104
K:DMin
     "Dm"    A>A DADA |"Gm"   ~B>A              GA````Bc|\
     "C"     G>G CGCG |
                       "F "    A>G              FG````AB|\
     "Dm"    A>A GFE>D|"Am"   (C/D/)E/C/ [1 "Dm"D4     :|\
                                         [2 "Dm"D3     ||
C/D/|"C(Em)"~E>E CECE |"Dm"   ~F>E              DE````FG|\
     "C(Em)"~E>E CECE |"Dm"   ~F>E              DE"Gm"FG|
     "C"     G>G CGCG |"F "    A>G              FG````AB|\
     "Dm"    A>A GFE>D|"C(Em)"(C/D/)E/C/ [1 "Dm"D3     :|\
                                         [2 "Dm"D4     |]

